!!!!SEGMENT: pl-gd--ee-1638--002-007_marenzio-luca--motettorum-pro-festis-totius-anni-in-festo-purific-b-m-virg-hodie-beata.krn
!!!cenid: 15xx:1010
!!!COM: Marenzio, Luca
!!!COM-rismID: pe30003955
!!!CDT: ~1553-1599/08/22
!!!CNT: Italian
!!!GTL: Motettorum pro festis totius anni
!!!OTL: In festo Purific. B. M. Virg./Hodie beata
!!!OMV: 007
!!!PDT: 1588
!!!AGN:
!!!SMS-siglum: PL-GD
!!!SMS-shelfmark: Ee 1638
!!!SMS-shelfwork: 002-007 G
!!!SMS-variant:
!!!SMS-altvar:
!!!NIFC-rismSourceID: 990039238
!!!NIFC-islandoraID: pl-gd:57883
!!!URL-pdf-islandora: https://repozytorium.nifc.pl/islandora/object/pl-gd%3A57883/datastream/PDF/view
!!!URL-scan: https://polish.musicsources.pl/pl/lokalizacje/galeria/klocki-introligatorskie/655 @EN{Scan on Polish Music Sources Website} @PL{Skany w portalu Dziedzictwo Muzyki Polskiej w otwartym dostępie}
!!!ONB-nifc: UWAGA: Cantus: s. 619 (prawa), Altus: s. 467 (prawa), Tenor: s. 315 (prawa), Bassus: s. 163 (prawa)
!!!Key:
!!!AIN: 1 alto 1 bass 1 soprn 1 tenor
!!!key:
**kern	**text	**kern	**text	**kern	**text	**kern	**text
*part4	*part4	*part3	*part3	*part2	*part2	*part1	*part1
*staff4	*staff4	*staff3	*staff3	*staff2	*staff2	*staff1	*staff1
*I"Basso	*	*I"Tenor	*	*I"Altus	*	*I"Cantus	*
*I'B	*	*I'T	*	*I'A	*	*I'C	*
*Ibass	*	*Itenor	*	*Ialto	*	*Isoprn	*
*ICvox	*	*ICvox	*	*ICvox	*	*ICvox	*
*IG	*	*	*	*	*	*	*
*clefF4	*	*clefC4	*	*clefC3	*	*clefC1	*
*k[]	*	*k[]	*	*k[]	*	*k[]	*
*d:	*	*d:	*	*d:	*	*d:	*
*M2/1	*	*M2/1	*	*M2/1	*	*M2/1	*
*met(C|)	*	*met(C|)	*	*met(C|)	*	*met(C|)	*
=1-	=1-	=1-	=1-	=1-	=1-	=1-	=1-
!	!	!	!	!	!	!LO:TX:a:B:t=Prestissimo	!
1r	.	1.A	HO-	0r	.	0r	.
1.D	HO-	.	.	.	.	.	.
.	.	2A/	-di-	.	.	.	.
=2-	=2-	=2-	=2-	=2-	=2-	=2-	=2-
.	.	1A	-e	0r	.	0r	.
2D/	-di-	.	.	.	.	.	.
1D	-e	2r	.	.	.	.	.
.	.	2D/	be-	.	.	.	.
=3-	=3-	=3-	=3-	=3-	=3-	=3-	=3-
2r	.	1A	-a-	0r	.	0r	.
2AA/	be-	.	.	.	.	.	.
1E	-a-	2G/	-ta	.	.	.	.
.	.	2G/	Vir-	.	.	.	.
=4-	=4-	=4-	=4-	=4-	=4-	=4-	=4-
2D/	-ta	2A/	-go	0r	.	0r	.
2D/	Vir-	2B\	Ma-	.	.	.	.
2E\	-go	1c	-ri-	.	.	.	.
2F\	Ma-	.	.	.	.	.	.
=5-	=5-	=5-	=5-	=5-	=5-	=5-	=5-
1G	-ri-	4B\	-a	0r	.	1r	.
.	.	4A/	.	.	.	.	.
.	.	4B\	.	.	.	.	.
.	.	4c\	.	.	.	.	.
1D	-a	1d	.	.	.	1.a	HO-
=6-	=6-	=6-	=6-	=6-	=6-	=6-	=6-
1r	.	1r	.	1.d	HO-	.	.
.	.	.	.	.	.	2a\	-di-
1.D	Ho-	1.f	Ho-	.	.	1a	-e
.	.	.	.	2d\	-di-	.	.
=7-	=7-	=7-	=7-	=7-	=7-	=7-	=7-
.	.	.	.	1d	-e	2r	.
!LO:SIC:v:t=custos D	!	!LO:SIC:v:t=custos f	!	!	!	!	!
2D/	-di-	2f\	-di-	.	.	2d/	be-
!LO:LB:g=original	!	!LO:LB:g=original	!	!	!	!	!
1D	-e	1f	-e	2r	.	1a	-a-
.	.	.	.	2A/	be-	.	.
=8-	=8-	=8-	=8-	=8-	=8-	=8-	=8-
1r	.	0r	.	1e	-a-	2g/	-ta
.	.	.	.	.	.	2g/	Vir-
1D	be-	.	.	2d\	-ta	2a\	-go
.	.	.	.	2d\	Vir-	2b\	Ma-
=9-	=9-	=9-	=9-	=9-	=9-	=9-	=9-
1A	-a-	2r	.	2e\	-go	1cc	-ri-
.	.	2c\	Vir-	2f\	Ma-	.	.
2G\	-ta	2d\	-go	1g	-ri-	1b	-a
2G\	vir-	2e\	Ma-	.	.	.	.
=10-	=10-	=10-	=10-	=10-	=10-	=10-	=10-
2A\	-go	4f\	-ri-	2.c/	-a	1r	.
.	.	4e\	.	.	.	.	.
2E\	Ma-	2.e\	.	.	.	.	.
.	.	.	.	4B/	.	.	.
1F	-ri-	.	.	1A	.	2r	.
.	.	4d\	.	.	.	.	.
.	.	4d\	.	.	.	2.a\	Pu-
.	.	8c\	.	.	.	.	.
.	.	8B\	.	.	.	.	.
=11-	=11-	=11-	=11-	=11-	=11-	=11-	=11-
1E	-a	2c\	.	2r	.	.	.
!	!	!	!	!	!	!LO:SIC:v:t=custos g#	!
.	.	.	.	.	.	4a\	-e-
!	!	!	!	!	!	!LO:LB:g=original	!
.	.	2B\	.	2.e\	pue-	2g#X/	-rum
2r	.	1A	-a	.	.	1a	Ie-
!	!	!	!	!LO:SIC:v:t=custos f	!	!	!
.	.	.	.	4e\	.	.	.
!	!	!	!	!LO:LB:g=original	!	!	!
2.D/	pu-	.	.	2f\	-ru(m)	.	.
=12-	=12-	=12-	=12-	=12-	=12-	=12-	=12-
.	.	2r	.	1e	Ie-	2a\	-ſum
4D/	-e-	.	.	.	.	.	.
2C#X/	-rum	2.A/	Pu-	.	.	2e/	prae-
1D	Ie-	.	.	0d	-ſum	2f#X/	-ſen-
.	.	4A/	-e-	.	.	.	.
.	.	2B-X\	-rum	.	.	1gny\	-ta-
=13-	=13-	=13-	=13-	=13-	=13-	=13-	=13-
0D	-ſum	1A	Ie-	.	.	.	.
.	.	.	.	.	.	4fny/	.
.	.	.	.	.	.	4e/	.
.	.	2A/	-ſum	2r	.	4f/	.
.	.	.	.	.	.	4g/	.
.	.	2d\	prae-	2f\	prae-	4a\	.
.	.	.	.	.	.	4f/	.
=14-	=14-	=14-	=14-	=14-	=14-	=14-	=14-
0r	.	2c\	-ſen-	2e\	-ſen-	4g/	.
.	.	.	.	.	.	4a\	.
.	.	1Bny	-ta-	1d	-ta-	4b\	.
.	.	.	.	.	.	4cc\	.
.	.	.	.	.	.	2dd\	.
.	.	1c\	-uit	1e\	-uit	2g/	-uit
=15-	=15-	=15-	=15-	=15-	=15-	=15-	=15-
0r	.	.	.	.	.	2cc\	in
!	!	!LO:SIC:v:t=custos B	!	!	!	!	!
.	.	2d\	in	2f\	in	2.a\	tem-
!	!	!LO:LB:g=original	!	!	!	!	!
.	.	1B-X	tem-	1d	tem-	.	.
.	.	.	.	.	.	8g/	.
.	.	.	.	.	.	8f/	.
.	.	.	.	.	.	2g/	.
=16-	=16-	=16-	=16-	=16-	=16-	=16-	=16-
2r	.	1A	-plo	2e\	-plo	2.a\	-plo
*	*ij	*	*	*	*	*	*
2.A\	pu-	.	.	2.c/	Pu-	.	.
.	.	.	.	.	.	8g\	.
!	!	!	!	!	!	!LO:SIC:v:t=custos e	!
.	.	.	.	.	.	8f/	.
!	!	!	!	!	!	!LO:LB:g=original	!
.	.	2r	.	.	.	1e	.
4A\	-e-	.	.	4c/	-e-	.	.
!LO:SIC:v:t=custos A	!	!	!	!	!	!	!
*	*	*	*ij	*	*	*	*
2G#X\	-rum	2.e\	Ie-	2B/	-rum	.	.
!LO:LB:g=original	!	!	!	!	!	!	!
=17-	=17-	=17-	=17-	=17-	=17-	=17-	=17-
1A	Ie-	.	.	1.c	Ie-	2r	.
.	.	4e\	-sum	.	.	.	.
.	.	2f\	prae-	.	.	2.a\	Pu-
2A\	-sum	2e\	-sen-	.	.	.	.
*	*Xij	*	*	*	*	*	*
.	.	.	.	.	.	4a\	-e-
2D/	prae-	2d\	-ta-	2A/	-ſum	2f#X/	-rum
=18-	=18-	=18-	=18-	=18-	=18-	=18-	=18-
2E\	-ſen-	2.c\	-vit	2r	.	2g/	Ie-
1F	-ta-	.	.	2c/	prae-	2a\	-ſum
.	.	4Bny\	in	.	.	.	.
.	.	2A/	tem-	2d\	-ſen-	2r	.
1E\	-uit	1G/	.	1e\	-ta-	2b\	prae-
=19-	=19-	=19-	=19-	=19-	=19-	=19-	=19-
.	.	.	.	.	.	2cc#X\	-ſen-
1D	in	1A	.	1f	-uit	2dd\	-ta-
.	.	.	.	.	.	2a\	-uit
2.AA/	tem-	2A/	.	2e\	in	1cc#\	in
=20-	=20-	=20-	=20-	=20-	=20-	=20-	=20-
.	.	1c	.	0e	tem-	.	.
4BB/	.	.	.	.	.	.	.
4Cny/	.	.	.	.	.	2.a\	tem-
4D/	.	.	.	.	.	.	.
1E	.	1B	.	.	.	.	.
.	.	.	.	.	.	8g#X/	.
.	.	.	.	.	.	8f#X/	.
.	.	.	.	.	.	2g#X/	.
=21-	=21-	=21-	=21-	=21-	=21-	=21-	=21-
1AA	-plo	1A	-plo	1e	-plo	1a	-plo
*	*	*	*Xij	*	*	*	*
!	!	!	!	!LO:SIC:v:t=custos d	!	!LO:SIC:v:t=custos f	!
0A	et	1r	.	0c#X	et	0e	et
!	!	!	!	!LO:LB:g=original	!	!LO:LB:g=original	!
=22-	=22-	=22-	=22-	=22-	=22-	=22-	=22-
.	.	1A	et	.	.	.	.
1.D	Si-	1.A	Si-	1.d	Si-	1.f#X	Si-
!	!	!	!	!	!	!LO:LB:g=original	!
=23-	=23-	=23-	=23-	=23-	=23-	=23-	=23-
.	.	.	.	.	.	.	.
2C/	-me-	2c\	-me-	2e\	-me-	2gny/	-me-
0C	-on	0c	-on	0e	-on	0g	-on
=24-	=24-	=24-	=24-	=24-	=24-	=24-	=24-
.	.	.	.	.	.	.	.
1C	re-	1c	re-	1e	re-	1g	re-
=25-	=25-	=25-	=25-	=25-	=25-	=25-	=25-
!	!	!LO:SIC:v:t=custos c	!	!	!	!	!
0F	-ple-	0c	-ple-	0f	-ple-	0a	-ple-
!	!	!LO:LB:g=original	!	!	!	!	!
=26-	=26-	=26-	=26-	=26-	=26-	=26-	=26-
1C	-tus	1c	-tus	1e	-tus	1g	-tus
2.Gny\	Spi-	2.B\	Spi-	2.d\	Spi-	2.g/	Spi-
!LO:SIC:v:t=custos D	!	!	!	!	!	!	!
4G\	-ri-	4B\	-ri-	4d\	-ri-	4g/	-ri-
!LO:LB:g=original	!	!	!	!	!	!	!
=27-	=27-	=27-	=27-	=27-	=27-	=27-	=27-
1D	-tu	1A	-tu	1d	-tu	1fny	-tu
1E	San-	1G#X	ſan-	1B	ſan-	1e	San-
=28-	=28-	=28-	=28-	=28-	=28-	=28-	=28-
1E	-cto	1G#	-cto	1B	-cto	1e	-cto
2AA/	ac-	2A/	ac-	1r	.	1r	.
2.D/	-ce-	2A/	-ce-	.	.	.	.
=29-	=29-	=29-	=29-	=29-	=29-	=29-	=29-
.	.	2A/	-pit	1r	.	1r	.
4C/	-pit	.	.	.	.	.	.
2BB/	e-	2G#X/	e-	.	.	.	.
1AA	-um	1A	-um	2cny/	ac-	2ccny\	ac-
.	.	.	.	2.f\	-ce-	2cc\	-ce-
=30-	=30-	=30-	=30-	=30-	=30-	=30-	=30-
1r	.	1r	.	.	.	2cc\	-pit
.	.	.	.	4e\	-pit	.	.
.	.	.	.	2d\	e-	2b\	e-
2C/	ac-	2e\	ac-	1c	-um	2cc\	-um
2.F\	-ce-	2c\	-ce-	.	.	2a\	in
=31-	=31-	=31-	=31-	=31-	=31-	=31-	=31-
.	.	2c\	-pit	1r	.	2cc\	vl-
4E\	-pit	.	.	.	.	.	.
!	!	!	!	!	!	!LO:SIC:v:t=custos ee	!
2D/	e-	2B\	e-	.	.	2dd\	-nas
!	!	!	!	!	!	!LO:LB:g=original	!
2C/	-um	2c\	-um	2G/	ac-	4ee\	ſu-
.	.	.	.	.	.	4dd\	.
2AA/	in	2C/	in	2.c/	-ce-	4cc\	.
.	.	.	.	.	.	4b\	.
=32-	=32-	=32-	=32-	=32-	=32-	=32-	=32-
2C/	vl-	2E/	vl-	.	.	2.a\	.
.	.	.	.	4B/	-pit	.	.
2D/	-nas	2F/	-nas	2A/	e-	.	.
.	.	.	.	.	.	4b\	.
4E\	ſu-	4Gny/	ſu-	2G/	-um	4cc\	.
4D/	.	4F/	.	.	.	4b\	.
!	!	!	!	!LO:SIC:v:t=custos e	!	!	!
4C/	.	4E/	.	2c/	in	4a\	.
!	!	!	!	!LO:LB:g=original	!	!	!
4BB/	.	4D/	.	.	.	4g/	.
=33-	=33-	=33-	=33-	=33-	=33-	=33-	=33-
!	!	!LO:SIC:v:t=custos D	!	!	!	!	!
1AA	.	1C	.	2e\	vl-	1a	.
!	!	!LO:LB:g=original	!	!	!	!	!
.	.	.	.	2f#X\	-nas	.	.
!LO:SIC:v:t=custos C	!	!	!	!	!	!	!
1GG	-as	2D/	-as	4g\	ſu-	2b\	-as
!LO:LB:g=original	!	!	!	!	!	!	!
.	.	.	.	4f#\	.	.	.
.	.	2G/	ac-	4e\	.	2g/	ac-
.	.	.	.	4d\	.	.	.
=34-	=34-	=34-	=34-	=34-	=34-	=34-	=34-
0r	.	2.c\	-ce-	2.e\	.	2g/	-ce-
.	.	.	.	.	.	2g/	-pit
.	.	4B\	-pit	4d\	.	.	.
.	.	2A/	e-	2c/	.	2f#X/	e-
.	.	2G/	-um	2B/	-as	1g\	-um
=35-	=35-	=35-	=35-	=35-	=35-	=35-	=35-
2C/	ac-	0r	.	2e\	ac-	.	.
2.F\	-ce-	.	.	2c/	-ce-	2a\	in
.	.	.	.	2c/	-pit	2cc\	ul-
*	*ij	*	*	*	*	*	*
4E\	-pit	.	.	.	.	.	.
2D/	e-	.	.	2B/	e-	2dd\	-nas
=36-	=36-	=36-	=36-	=36-	=36-	=36-	=36-
2C/	-um	2c\	ac-	2e\	-um	4ee\	ſu-
.	.	.	.	.	.	4dd\	.
2FF/	in	2.f\	-ce-	2A/	in	4cc\	.
.	.	.	.	.	.	4b\	.
2F\	ul-	.	.	2c/	ul-	2a\	.
.	.	4e\	-pit	.	.	.	.
!	!	!	!	!	!	!LO:SIC:v:t=custos e	!
2G\	-nas	2d\	e-	2B/	-nas	2g/	-as
!	!	!	!	!	!	!LO:LB:g=original	!
=37-	=37-	=37-	=37-	=37-	=37-	=37-	=37-
2.A\	su-	2c\	-um	4e\	ſu-	2r	.
.	.	.	.	4d\	.	.	.
.	.	2A/	in	4c/	.	2e/	in
4G\	.	.	.	4B/	.	.	.
4F\	.	2c\	ul-	4A/	.	2a\	vl-
4E\	.	.	.	4G/	.	.	.
!	!	!	!	!LO:SIC:v:t=custos g	!	!	!
2D/	.	2d\	-nas	2F/	.	2b\	-nas
!	!	!	!	!LO:LB:g=original	!	!	!
=38-	=38-	=38-	=38-	=38-	=38-	=38-	=38-
1C	-as	2.e\	ſu-	2G/	-as	0cc	ſu-
*	*Xij	*	*	*	*	*	*
.	.	.	.	2c/	in	.	.
.	.	4d\	.	.	.	.	.
1r	.	4c\	.	2e\	vl-	.	.
.	.	4B\	.	.	.	.	.
.	.	2A/	.	2f#X\	-nas	.	.
=39-	=39-	=39-	=39-	=39-	=39-	=39-	=39-
1r	.	1G	-as	2g\	ſu-	1b	-as
.	.	.	.	2d\	-as	.	.
!	!	!LO:SIC:v:t=custos c	!	!	!	!	!
0C	Et	1r	.	2r	.	0g	Et
!	!	!LO:LB:g=original	!	!	!	!	!
.	.	.	.	1e\	Et	.	.
=40-	=40-	=40-	=40-	=40-	=40-	=40-	=40-
.	.	1c	Et	.	.	.	.
.	.	.	.	1c	be-	.	.
1.F	be-	2A/	ve-	.	.	1.a	be-
.	.	1c\	-ne-	1A/	-ne-	.	.
=41-	=41-	=41-	=41-	=41-	=41-	=41-	=41-
.	.	.	.	.	.	.	-ne-
2G\	-ne-	2.B\	-di-	1d	-di-	2g/	-di-
0E	-di-	.	.	.	.	0g	-xit
.	.	4A/	.	.	.	.	.
.	.	4G/	.	4c/	.	.	.
.	.	4F#X/	.	4B/	.	.	.
=42-	=42-	=42-	=42-	=42-	=42-	=42-	=42-
.	.	1G	.	1c#X	.	.	.
1D	-xit	1A	-xit	1d	-xit	1f#X	.
=43-	=43-	=43-	=43-	=43-	=43-	=43-	=43-
0G	De-	0B	De-	1.d	De-	0g	De-
.	.	.	.	2e\	.	.	.
=44-	=44-	=44-	=44-	=44-	=44-	=44-	=44-
!LO:SIC:v:t=custos C	!	!	!	!	!	!	!
0F	-um	1c	-um	1.fny	-um	2a\	-um
!LO:LB:g=original	!	!	!	!	!	!	!
.	.	.	.	.	.	4fny/	in
.	.	.	.	.	.	4g/	.
.	.	4Fny/	in	.	.	4a\	.
.	.	4G/	.	.	.	4b\	.
.	.	4A/	.	4cny/	in	1cc\	.
.	.	4B\	.	4d\	.	.	.
=45-	=45-	=45-	=45-	=45-	=45-	=45-	=45-
00C	in	1c	.	4e\	.	.	.
.	.	.	.	4f\	.	.	.
.	.	.	.	1g	.	4c/	ae-
.	.	.	.	.	.	4d/	.
.	.	4C/	ae-	.	.	4e/	.
.	.	4D/	.	.	.	4f/	.
!	!	!	!	!	!	!LO:SIC:v:t=custos c	!
.	.	4E/	.	4c/	ae-	1g\	.
!	!	!	!	!LO:SIC:v:t=custos e	!	!LO:LB:g=original	!
.	.	4F/	.	4d\	.	.	.
!	!	!	!	!LO:LB:g=original	!	!	!
=46-	=46-	=46-	=46-	=46-	=46-	=46-	=46-
.	.	1G	.	4e\	.	.	.
.	.	.	.	4d\	.	.	.
.	.	.	.	4e\	.	4c/	-ter-
.	.	.	.	4f\	.	4d/	.
.	.	4C/	-ter-	2g\	.	4e/	.
!	!	!LO:SIC:v:t=custos E	!	!	!	!	!
.	.	4D/	.	.	.	4f/	.
!	!	!LO:LB:g=original	!	!	!	!	!
.	.	4E/	.	2e\	-ter-	4g/	.
.	.	4F/	.	.	.	4a\	.
=47-	=47-	=47-	=47-	=47-	=47-	=47-	=47-
00GG	ae-	4G/	.	2d\	-nu(m)	4b\	.
.	.	4A/	.	.	.	4cc\	.
.	.	4B\	.	4G/	in	2dd\	.
.	.	4c\	.	4A/	.	.	.
.	.	2d\	.	4B/	.	2b\	-num
.	.	.	.	4c/	.	.	.
.	.	2B\	-num	1d\	.	4g/	in
.	.	.	.	.	.	4a\	.
=48-	=48-	=48-	=48-	=48-	=48-	=48-	=48-
.	.	4G/	in	.	.	4b\	.
.	.	4A/	.	.	.	4cc\	.
.	.	4B\	.	2G/	ae-	2dd\	.
.	.	4c\	.	.	.	.	.
.	.	2d\	.	4g\	-ter-	2b\	ae-
.	.	.	.	4f\	.	.	.
.	.	2B\	ae-	4e\	.	2.ee\	-ter-
.	.	.	.	4d\	.	.	.
=49-	=49-	=49-	=49-	=49-	=49-	=49-	=49-
00AA	-ter-	2.e\	-ter-	4c/	.	.	.
.	.	.	.	4B/	.	4dd\	.
.	.	.	.	4A/	.	4cc\	.
.	.	4d\	.	4B/	.	4b\	.
.	.	4c\	.	4c/	.	4a\	.
.	.	4B\	.	4d\	.	4b\	.
.	.	4A/	.	1e\	.	4cc\	.
.	.	4G/	.	.	.	4b\	.
=50-	=50-	=50-	=50-	=50-	=50-	=50-	=50-
.	.	2.F/	.	.	.	2.a\	.
.	.	.	.	2.d\	.	.	.
.	.	8E/	.	.	.	8g/	.
.	.	8D/	.	.	.	8f/	.
.	.	1E	.	.	.	1e	.
.	.	.	.	8c/	.	.	.
.	.	.	.	8B/	.	.	.
.	.	.	.	2c#X/	.	.	.
=51-	=51-	=51-	=51-	=51-	=51-	=51-	=51-
00D	-num.	00D	-num.	00d	-num.	00f#X	-num.
=52-	=52-	=52-	=52-	=52-	=52-	=52-	=52-
.	.	.	.	.	.	.	.
=-	=-	=-	=-	=-	=-	=-	=-
*-	*-	*-	*-	*-	*-	*-	*-
!!!system-decoration: s1,s2,s3,s4
!!!ENC: Andrzej Gręziak
!!!END: 2022-06-30
!!!ENC: Julita Ruszuk
!!!END: 2022-07-05
